icons/notification.svg

<svg width="17" height="22" viewBox="0 0 17 22" fill="none" xmlns="http://www.w3.org/2000/svg">
<path fill-rule="evenodd" clip-rule="evenodd" d="M9.62091 1.11392C9.62091 0.498721 9.11906 0 8.50001 0C7.88095 0 7.3791 0.498721 7.3791 1.11392V1.94937H6.75429C4.26021 1.94937 2.19596 3.87647 2.04027 6.3502L1.79255 10.2862C1.6981 11.7869 1.19113 13.233 0.326849 14.4672C-0.454063 15.5823 0.241143 17.1224 1.59848 17.2842L5.41753 17.7397V18.9367C5.41753 20.6285 6.7976 22 8.50001 22C10.2024 22 11.5825 20.6285 11.5825 18.9367V17.7397L15.4015 17.2842C16.7589 17.1224 17.4541 15.5823 16.6732 14.4672C15.8089 13.233 15.3019 11.7869 15.2074 10.2862L14.9597 6.3502C14.804 3.87647 12.7398 1.94937 10.2457 1.94937H9.62091V1.11392ZM6.75429 3.62025C5.14804 3.62025 3.81861 4.86136 3.71834 6.4545L3.47062 10.3905C3.35697 12.1963 2.74691 13.9365 1.70689 15.4216C1.65045 15.5022 1.70069 15.6135 1.7988 15.6252L5.98835 16.1249C7.6568 16.3238 9.3432 16.3238 11.0117 16.1249L15.2012 15.6252C15.2993 15.6135 15.3496 15.5022 15.2931 15.4216C14.2531 13.9365 13.643 12.1963 13.5294 10.3905L13.2817 6.4545C13.1814 4.86136 11.852 3.62025 10.2457 3.62025H6.75429ZM8.50001 20.3291C7.72618 20.3291 7.09888 19.7057 7.09888 18.9367V18.1013H9.90113V18.9367C9.90113 19.7057 9.27383 20.3291 8.50001 20.3291Z" fill="#F6CA47"/>
</svg>

<svg width="17" height="22" fill="none" xmlns="http://www.w3.org/2000/svg"><path fill-rule="evenodd" clip-rule="evenodd" d="M9.62 1.114C9.62.499 9.12 0 8.5 0c-.619 0-1.12.499-1.12 1.114v.835h-.626C4.26 1.95 2.196 3.876 2.04 6.35l-.247 3.936a8.184 8.184 0 0 1-1.466 4.181c-.781 1.115-.086 2.655 1.271 2.817l3.82.456v1.197A3.073 3.073 0 0 0 8.5 22a3.073 3.073 0 0 0 3.082-3.063V17.74l3.82-.456c1.357-.162 2.052-1.702 1.271-2.817a8.185 8.185 0 0 1-1.466-4.18L14.96 6.35c-.156-2.474-2.22-4.4-4.714-4.4H9.62v-.836ZM6.755 3.62a3.034 3.034 0 0 0-3.036 2.835l-.247 3.935a9.848 9.848 0 0 1-1.764 5.032.13.13 0 0 0 .092.203l4.19.5a21.22 21.22 0 0 0 5.023 0l4.19-.5a.13.13 0 0 0 .091-.203 9.848 9.848 0 0 1-1.764-5.032l-.247-3.936a3.034 3.034 0 0 0-3.036-2.834H6.754ZM8.5 20.33a1.397 1.397 0 0 1-1.401-1.393V18.1H9.9v.836c0 .769-.627 1.392-1.401 1.392Z" fill="#F6CA47"/></svg>
